X: 32215
T: Phillebelula All The Way
R: barndance
M: 4/4
K: Dmajor
f>e|d>cd>B A2G>F|E>EF>G A2(3ABc|d>BA>B d>de>c|d6:|
d>e|f2 f2 f2 g>f|g>f e2 e4|d2 d2 d2 e>d|c>BA2 A2(3ABc|
(3ded(3cBA B>cd2|(3ded(3cBA B>cd>f|e2(3efg a2(3ABc|d2 f2 d2||

